X:1
T:6th St. Rag.
T:6th St. Rag.
T:E. L. Bowman.
T:Made in Germany
T:Made in Germany
C:E. L. Bowman.
Z:Made in Germany
%%score { 1 | 2 }
L:1/8
Q:1/4=170
M:4/4
K:Db
V:1 treble nm="Piano" snm="Pno."
V:2 bass 
V:1
 [=Gd=e][Gde][Gde][Gde]- [Gde]_ed[Acea]- | [Acea]4- [Acea]2 z2 | %2
 [=Gd=e][Gde][Gde][Gde]- [Gde]_ed[Acea]- | [Acea]4- [Acea]a__ag || fg=ga- aa f'2 | f e'2 f d'agf | %6
 =d e2 f- f g2 c' | b8 | cd=de- ee c'2 | c b2 c acBA | FG=GA- AA f2 | d4- da__ag | fg=ga- aa f'2 | %13
 f e'2 f d'agf | =d e2 f- f g2 c' | b8 | [dgbd']2 [Bgb]2 [c=e=gc']2 [Beb]2 | %17
 [Adfa] [=A=a]2 [B=dfb]- [Bdfb]afd | [=G_df]4 [_Gcea]4 | [FAd]4 [dfad']2 z2 || %20
 z2 [dfad']2 [d=e=gd']2 [d_e_g__bd']2 | [dfad']ba[dd']- [dd']baf | %22
 z2 [DFAd]2 [D=E=Gd]2 [D_E_G__Bd]2 | [DFAd]BA[Dd]- [Dd]B A2 |!8va(!{c'd'=d'} f'b=ab _c'bab | %25
 =d'b=ab _c'bab | f'b=ab _c'bab | e'b=ab _c'bab |{=abc'} e'_a=ga baga | c'a=ga baga | d'a=ga baga | %31
 d'a=ga baga |{c'd'=d'} f'b=ab _c'bab | =d'b=ab _c'bab | f'b=ab _c'bab | e'b=ab _c'bab!8va)! | %36
 [dgbd']2 [Bgb]2 [c=e=gc']2 [Beb]2 | [Adfa] [=A=a]2 [B=dfb]- [Bdfb]afd | [=G_df]4 [_Gcea]4 | %39
 [FAd]4 [dfad']2 z2!fine! || z2 [dfad']2 [d=e=gd']2 [d_e_g__bd']2 | [dfad']ba[dd']- [dd']baf | %42
 z2 [DFAd]2 [D=E=Gd]2 [D_E_G__Bd]2 | [DFAd]BA[Dd]- [Dd] z z2 | %44
 z [dgad'][dgad']c' [cga]b[Bga][=A=a] | [=Ag=a] [Bg_ab]2 [=A=a] [Bg_ab][=A=a] [Bg_ab]2 | %46
 z [dgad'][dgad']c' [cga]b[Bga][=A=a] | [=Af^g=a] [Bfgb]2 [Afga] [Bfgb][Afga] [Bfgb]2 | %48
 z2 [dfad']2 [d=e=gd']2 [d_e_g__bd']2 | [dfad']ba[dd']- [dd']baf | %50
 z2 [DFAd]2 [D=E=Gd]2 [D_E_G__Bd]2 | [DFAd]BA[DFAd]- [DFAd]2 z2 | %52
!8va(! z [b=d'f'b'][bd'f'b']a' [ad'f']f'ff' | [ff'] [ee']2 [Bb]- [Bb][cc'][dd'][ee'] | %54
 [ff'] [aa']2 [ff']- [ff']2 [ee']2 | [dfad']4- [dfad']2!8va)!"^D.C." z2!D.C.! |] %56
V:2
 [=A,,,=A,,][A,,,A,,][A,,,A,,][A,,,A,,]- [A,,,A,,]2 [A,,,A,,]2 | %1
 [_A,,,_A,,]=D,E,[A,,,A,,]- [A,,,A,,]2 z2 | %2
 [=A,,,=A,,][A,,,A,,][A,,,A,,][A,,,A,,]- [A,,,A,,]2 [A,,,A,,]2 | %3
 [_A,,,_A,,]=D,E,[A,,,A,,]- [A,,,A,,][A,,A,][B,,B,][C,C] || [D,D]2 [A,DF]2 [F,,F,]2 [A,DF]2 | %5
 [D,,D,]2 [A,DF]2 [F,,F,][D,,D,][E,,E,][F,,F,] | [E,,E,]2 [B,EG]2 [B,,B,]2 [B,EG]2 | %7
 [G,,G,]2 [B,EG]2 [E,,E,]2 [B,EG]2 | [A,,A,]2 [A,CG]2 [E,,E,]2 [A,CG]2 | %9
 [E,,E,]2 [A,CG]2 z [A,,A,][B,,B,][C,C] | [D,D]2 [A,DF]2 [A,,A,]2 [A,DF]2 | %11
 [D,,D,]2 [A,DF]2 [F,,F,][A,,A,][B,,B,][C,C] | [D,D]2 [A,DF]2 [F,,F,]2 [A,DF]2 | %13
 [D,,D,]2 [A,DF]2 [F,,F,][D,,D,][E,,E,][F,,F,] | [E,,E,]2 [B,EG]2 [B,,B,]2 [B,EG]2 | %15
 [G,,G,]2 [B,EG]2 [E,,E,]2 [B,EG]2 | [G,,G,]2 [B,DG]2 [=G,,=G,]2 [G,C=E]2 | %17
 [A,,A,]2 [A,DF]2 [F,,F,]2 [B,=DA]2 | [E,,E,]2 [E,=G,B,D]2 [A,,A,]2 [E,A,C]2 | %19
 [D,D]2 [A,,A,]2 [D,,D,]2 z2 ||[K:treble] z2 [A_c]2 [=GB]2 [_G__B]2 | [FA]8 | %22
[K:bass] z2 [A,_C]2 [=G,B,]2 [_G,__B,]2 | [F,A,]8 | [=D,,=D,]2 [B,=DFA]2 [D,D]2 [B,DFA]2 | %25
 [F,,F,]2 [B,=DFA]2 [B,,,B,,]2 [B,DFA]2 | [E,E]2 [B,EG]2 [B,,B,]2 [B,EG]2 | %27
 [E,E]2 [B,EG]2 [B,,B,]2 [B,EG]2 | [A,,A,]2 [A,CEG]2 [C,C]2 [A,CEG]2 | %29
 [A,,A,]2 [A,CEG]2 [C,C]2 [A,CEG]2 | [D,,D,]2 [A,DF]2 [A,,A,]2 [A,DF]2 | %31
 [D,,D,]2 [A,DF]2 [A,,A,]2 [A,DF]2 | [=D,,=D,]2 [B,=DFA]2 [D,D]2 [B,DFA]2 | %33
 [F,,F,]2 [B,=DFA]2 [B,,,B,,]2 [B,DFA]2 | [E,E]2 [B,EG]2 [B,,B,]2 [B,EG]2 | %35
 [E,E]2 [B,EG]2 [B,,B,]2 [B,EG]2 | [G,,G,]2 [B,DG]2 [=G,,=G,]2 [G,C=E]2 | %37
 [A,,A,]2 [A,DF]2 [F,,F,]2 [B,=DA]2 | [E,,E,]2 [E,=G,B,D]2 [A,,A,]2 [E,A,C]2 | %39
 [D,D]2 [A,,A,]2 [D,,D,]2"^FINE." z2 ||[K:treble] z2 [A_c]2 [=GB]2 [_G__B]2 | [FA]8 | %42
[K:bass] z2 [A,_C]2 [=G,B,]2 [_G,__B,]2 | [F,A,]4- [F,A,][D,,D,][C,,C,][B,,,B,,] | %44
 [A,,,A,,]2 [A,CEG]2 [E,,E,]2 [A,CEG]2 | [A,,,A,,]2 [A,CEG]2 [E,,E,]2 [A,CEG]2 | %46
 [D,D]2 [A,CEG]2 [A,,A,]2 [A,CEG]2 | [D,D]2 [A,CEG]2 [A,,A,]2 [A,CEG]2 | %48
 z2 [A_c]2 [=GB]2 [_G__B]2 | [FA]8 |[K:bass] z2 [A,_C]2 [=G,B,]2 [_G,__B,]2 | %51
 [F,A,]4- [F,A,][F,,F,][_F,,_F,][E,,E,] | [=D,,=D,]2 [B,=DFA]2 [B,,B,]2 [B,DFA]2 | %53
 [E,E]2 [B,EGB]2 [B,,B,]2 [B,EGB]2 | [D,,D,]2 [A,DF]2 [A,,A,]2 [A,CEG]2 | %55
 [D,D]2 [A,,A,]2 [D,,D,]2 z2 |] %56

